assets/Books/Flat/books_flat.svg

<svg width="32" height="32" viewBox="0 0 32 32" fill="none" xmlns="http://www.w3.org/2000/svg">
<path d="M17.0454 27.2857H30V13C30 11.8954 29.1045 11 28 11H17.0454V27.2857Z" fill="#00A6ED"/>
<path d="M15.6818 27.9642H30V29.3214H15.6818V27.9642Z" fill="#D3D3D3"/>
<path d="M16.0227 11C15.4579 11 15 11.4557 15 12.0179V28.6429H15.6818C15.6818 28.2681 15.9871 27.9643 16.3636 27.9643H17.0455V11H16.0227Z" fill="#0074BA"/>
<path d="M16.0227 27.2858C15.4579 27.2858 15 27.7415 15 28.3036V28.9822C15 29.5443 15.4579 30.0001 16.0227 30.0001H28.9773C29.4226 30.0001 29.8014 29.7168 29.9418 29.3215H16.3636C15.9871 29.3215 15.6818 29.0177 15.6818 28.6429C15.6818 28.2681 15.9871 27.9643 16.3636 27.9643H30V27.2858H16.0227Z" fill="#0074BA"/>
<path d="M10.0454 23.2857H23V9C23 7.89543 22.1045 7 21 7H10.0454V23.2857Z" fill="#CA0B4A"/>
<path d="M8.68182 23.9642H23V25.3214H8.68182V23.9642Z" fill="#D3D3D3"/>
<path d="M9.02273 7C8.45789 7 8 7.45571 8 8.01786V24.6429H8.68182C8.68182 24.2681 8.98708 23.9643 9.36364 23.9643H10.0455V7H9.02273Z" fill="#990838"/>
<path d="M9.02273 23.2858C8.45789 23.2858 8 23.7415 8 24.3036V24.9822C8 25.5443 8.45789 26.0001 9.02273 26.0001H21.9773C22.4226 26.0001 22.8014 25.7168 22.9418 25.3215H9.36364C8.98708 25.3215 8.68182 25.0177 8.68182 24.6429C8.68182 24.2681 8.98708 23.9643 9.36364 23.9643H23V23.2858H9.02273Z" fill="#990838"/>
<path d="M4.04541 20.2857H17V6C17 4.89543 16.1045 4 15 4H4.04541V20.2857Z" fill="#86D72F"/>
<path d="M2.68182 20.9642H17V22.3214H2.68182V20.9642Z" fill="#D3D3D3"/>
<path d="M3.02273 4C2.45789 4 2 4.45571 2 5.01786V21.6429H2.68182C2.68182 21.2681 2.98708 20.9643 3.36364 20.9643H4.04545V4H3.02273Z" fill="#44911B"/>
<path d="M3.02273 20.2858C2.45789 20.2858 2 20.7415 2 21.3036V21.9822C2 22.5443 2.45789 23.0001 3.02273 23.0001H15.9773C16.4226 23.0001 16.8014 22.7168 16.9418 22.3215H3.36364C2.98708 22.3215 2.68182 22.0177 2.68182 21.6429C2.68182 21.2681 2.98708 20.9643 3.36364 20.9643H17V20.2858H3.02273Z" fill="#008463"/>
</svg>

<svg xmlns="http://www.w3.org/2000/svg" width="32" height="32" fill="none"><path fill="#00A6ED" d="M17.045 27.286H30V13a2 2 0 0 0-2-2H17.045v16.286Z"/><path fill="#D3D3D3" d="M15.682 27.964H30v1.357H15.682v-1.357Z"/><path fill="#0074BA" d="M16.023 11A1.02 1.02 0 0 0 15 12.018v16.625h.682a.68.68 0 0 1 .682-.679h.681V11h-1.022Z"/><path fill="#0074BA" d="M16.023 27.286A1.02 1.02 0 0 0 15 28.304v.678A1.02 1.02 0 0 0 16.023 30h12.954c.446 0 .824-.283.965-.678H16.364a.68.68 0 0 1-.682-.68.68.68 0 0 1 .682-.678H30v-.678H16.023Z"/><path fill="#CA0B4A" d="M10.045 23.286H23V9a2 2 0 0 0-2-2H10.045v16.286Z"/><path fill="#D3D3D3" d="M8.682 23.964H23v1.357H8.682v-1.357Z"/><path fill="#990838" d="M9.023 7A1.02 1.02 0 0 0 8 8.018v16.625h.682a.68.68 0 0 1 .682-.679h.681V7H9.024Z"/><path fill="#990838" d="M9.023 23.286A1.02 1.02 0 0 0 8 24.304v.678A1.02 1.02 0 0 0 9.023 26h12.954c.446 0 .824-.283.965-.678H9.364a.68.68 0 0 1-.682-.68.68.68 0 0 1 .682-.678H23v-.678H9.023Z"/><path fill="#86D72F" d="M4.045 20.286H17V6a2 2 0 0 0-2-2H4.045v16.286Z"/><path fill="#D3D3D3" d="M2.682 20.964H17v1.357H2.682v-1.357Z"/><path fill="#44911B" d="M3.023 4A1.02 1.02 0 0 0 2 5.018v16.625h.682a.68.68 0 0 1 .682-.679h.681V4H3.023Z"/><path fill="#008463" d="M3.023 20.286A1.02 1.02 0 0 0 2 21.304v.678A1.02 1.02 0 0 0 3.023 23h12.954c.446 0 .824-.283.965-.678H3.364a.68.68 0 0 1-.682-.68.68.68 0 0 1 .682-.678H17v-.678H3.023Z"/></svg>
